lib/typescript/assets/images/icons/phone.svg

<svg xmlns="http://www.w3.org/2000/svg" width="24" height="24" viewBox="0 0 24 24">
  <path d="M3,4.5 L3,6.50657781 C3,14.5147067 9.49187113,21.0065778 17.5,21.0065778 L19.5,21.0065778 C20.3284271,21.0065778 21,20.3350049 21,19.5065778 L21,16.9415184 C21,16.2958728 20.5868549,15.7226646 19.9743416,15.5184935 L16.7910868,14.4574086 C16.1493722,14.2435037 15.4438837,14.4855623 15.0686697,15.0483832 L14.3397029,16.1418335 C13.9644889,16.7046545 13.2590004,16.9467131 12.6172858,16.7328082 L11.0918861,16.2243416 C9.52761302,15.7029173 8.32743167,14.4342085 7.89358037,12.8434204 L7.26652359,10.5442122 C7.05705568,9.7761632 7.48408037,8.97826027 8.23932768,8.72651116 L8.84188612,8.52565835 C9.4722734,8.31552926 9.85610633,7.67801925 9.74686542,7.02257376 L9.28533671,4.25340152 C9.16478972,3.53011956 8.53900455,3 7.80574582,3 L4.5,3 C3.67157288,3 3,3.67157288 3,4.5 Z M2,4.5 C2,3.11928813 3.11928813,2 4.5,2 L7.80574582,2 C9.02784371,2 10.070819,2.88353261 10.2717306,4.08900253 L10.7332593,6.85817477 C10.9233967,7.99899864 10.2553231,9.10860523 9.15811388,9.47434165 L8.55555544,9.67519446 C8.30380634,9.75911083 8.16146478,10.0250785 8.23128742,10.2810948 L8.85834419,12.580303 C9.20422134,13.8485192 10.1610361,14.8599657 11.4081139,15.2756584 L12.9335135,15.7841249 C13.1474184,15.8554265 13.3825812,15.7747403 13.5076526,15.5871333 L14.2366194,14.493683 C14.861976,13.5556481 16.0377903,13.1522171 17.1073146,13.5087253 L20.2905694,14.5698102 C21.3114248,14.9100953 22,15.8654424 22,16.9415184 L22,19.5065778 C22,20.8872897 20.8807119,22.0065778 19.5,22.0065778 L17.5,22.0065778 C8.93958638,22.0065778 2,15.0669914 2,6.50657781 L2,4.5 Z"/>
</svg>

<svg xmlns="http://www.w3.org/2000/svg" width="24" height="24"><path d="M3 4.5v2.007c0 8.008 6.492 14.5 14.5 14.5h2a1.5 1.5 0 0 0 1.5-1.5v-2.565a1.5 1.5 0 0 0-1.026-1.424l-3.183-1.06a1.5 1.5 0 0 0-1.722.59l-.73 1.094a1.5 1.5 0 0 1-1.722.59l-1.525-.508a4.932 4.932 0 0 1-3.198-3.38l-.627-2.3a1.5 1.5 0 0 1 .972-1.817l.603-.201a1.35 1.35 0 0 0 .905-1.503l-.462-2.77A1.5 1.5 0 0 0 7.805 3H4.5A1.5 1.5 0 0 0 3 4.5zm-1 0A2.5 2.5 0 0 1 4.5 2h3.306a2.5 2.5 0 0 1 2.466 2.089l.461 2.77a2.35 2.35 0 0 1-1.575 2.615l-.602.201a.5.5 0 0 0-.325.606l.627 2.3a3.932 3.932 0 0 0 2.55 2.695l1.526.508a.5.5 0 0 0 .574-.197l.729-1.093a2.5 2.5 0 0 1 2.87-.985l3.184 1.06A2.5 2.5 0 0 1 22 16.943v2.565a2.5 2.5 0 0 1-2.5 2.5h-2c-8.56 0-15.5-6.94-15.5-15.5V4.5z"/></svg>
